X: 349
T: Gongda shijiagang
%%abc-version 2.0
%%abcx-abcm2ps-target-version 5.9.1 (29 Sep 2008)
%%abc-creator hum2abc beta
%%abcx-conversion-date 2013/10/02 07:52:30
%%abc-edited-by Helmut Schaffrath
%%humdrum-veritas 45115096
%%humdrum-veritas-data 3761392788
%%continueall 1
%%barnumbers 0
L: 1/8
M: 2/4
K: G
e2e2 [I:setbarnb 1]| 
fe2e | 
B> d e e | 
d4 | 
B> d e e | 
fe2B | 
d> B A B | 
A4 | 
B dA2 | 
B dA2 | 
d B d e | 
G4 | 
E G A A | 
BA2E | 
G E D E | 
D4 | 
B> A B d | 
A3B | 
d> B d e | 
G4 | 
E> G A A | 
BA2E | 
G> E D E | 
D4 |]  



